X:1
T:Aruba, LMD
T:Aruba, LMD
T:Chester E. Pond, 1880
T:Public Domain Courtesy of the Cyber Hymnal™
C:Chester E. Pond, 1880
Z:Public Domain
Z:Courtesy of the Cyber Hymnal™
%%score ( 1 2 ) ( 3 4 )
L:1/8
Q:1/4=140
M:3/2
K:D
V:1 treble 
V:2 treble 
V:3 bass 
V:4 bass 
V:1
 D4 | F2 A2 d4 [Fd]4 | [Ge]3 [Af] [Fd]4 [FA]4 | [GB]2 [GB]2 [FA]4 D4 | [CE]2 [DF]2 [CE]4 D4 | %5
 F2 A2 d4 [Fd]4 | [Ge]3 [Af] [Fd]4 [DF]4 | [DG]2 [DB]2 [DA]4 D4 | [DF]2 [CE]2 D4 A4 | %9
 [Fd]3 [Fd] [Fd]4 [FA]4 | [GB]3 [Gd] [FA]4 [FA]4 | [Fd]3 [Fd] [Fd]4 [FA]4 | [GB]3 [Gd] [FA]4 D4 | %13
 F2 A2 d4 [Fd]4 | [Ge]3 [Af] [Fd]4 [DF]4 | [DG]2 [DB]2 [DA]4 D4 | [DF]2 [CE]2 D8 |] %17
V:2
 D4 | F2 A2 d4 x4 | x12 | x8 D4 | x8 D4 | F2 A2 d4 x4 | x12 | x8 D4 | x4 D4 A4 | x12 | x12 | x12 | %12
 x8 D4 | F2 A2 d4 x4 | x12 | x8 D4 | x4 D8 |] %17
V:3
 D,4 | F,2 A,2 D4 D4 | [A,C]3 [A,C] [D,D]4 [D,D]4 | [G,D]2 [G,D]2 [D,D]4 [D,F,]4 | %4
 A,2 A,2 [A,,A,]4 D,4 | F,2 A,2 D4 D4 | [A,C]3 [A,C] [D,D]4 [D,A,]4 | %7
 [B,,G,]2 [G,,G,]2 [D,F,]4 [F,A,]4 | A,2 [A,,G,]2 [D,F,]4 A,4 | [D,A,]3 [D,A,] [D,A,]4 [D,D]4 | %10
 [G,,D]3 [B,,D] [D,D]4 [D,A,]4 | [D,A,]3 [D,A,] [D,A,]4 [D,D]4 | [G,,D]3 [B,,D] [D,D]4 D,4 | %13
 F,2 A,2 D4 D4 | [A,C]3 [A,C] [D,D]4 [D,A,]4 | [B,,G,]2 [G,,G,]2 [D,F,]4 [F,A,]4 | %16
 A,2 [A,,G,]2 [D,F,]8 |] %17
V:4
 D,4 | F,2 A,2 D4 D4 | x12 | x12 | A,2 A,2 x2 D,4 x2 | F,2 A,2 D4 D4 | x12 | x12 | A,2 x4 A,4 x2 | %9
 x12 | x12 | x12 | x8 D,4 | F,2 A,2 D4 D4 | x12 | x12 | A,2 x10 |] %17

